packages/icons/raw/imported/ChatDoubleBubble.svg

<svg width="32" height="32" viewBox="0 0 32 32" fill="none" xmlns="http://www.w3.org/2000/svg">
<path d="M6.49951 10.5H5.99951H6.49951ZM6.49951 13.6342H6.99951H6.49951ZM18.3931 6.50002L18.3931 6.00002L18.3931 6.50002ZM10.4995 6.5L10.4995 7L10.4995 6.5ZM10.006 12.1673V11.6673H9.7703L9.6203 11.8491L10.006 12.1673ZM8.2709 14.2705L8.65659 14.5887H8.65659L8.2709 14.2705ZM18.3931 12.1673V12.6673V12.1673ZM21.2268 9.33365H20.7268H21.2268ZM24.4995 20.2906H24.9995H24.4995ZM24.4995 23.0684H23.9995H24.4995ZM12.6058 16.2907L12.6059 16.7907L12.6058 16.2907ZM20.4995 16.2906L20.4995 15.7906L20.4995 16.2906ZM20.993 21.9579L21.3483 21.6062L21.2016 21.4579H20.993V21.9579ZM22.7888 23.772L23.1441 23.4202L22.7888 23.772ZM12.6059 21.9579V22.4579V21.9579ZM5.99951 10.5L5.99951 13.6342H6.99951L6.99951 10.5H5.99951ZM18.3931 6.00002L10.4995 6L10.4995 7L18.3931 7.00002L18.3931 6.00002ZM9.6203 11.8491L7.88521 13.9523L8.65659 14.5887L10.3917 12.4855L9.6203 11.8491ZM18.3931 11.6673L10.006 11.6673V12.6673L18.3931 12.6673V11.6673ZM21.7268 9.33365C21.7268 7.49254 20.2342 6.00002 18.3931 6.00002L18.3931 7.00002C19.682 7.00002 20.7268 8.04482 20.7268 9.33365H21.7268ZM6.99951 10.5C6.99951 8.567 8.56652 7 10.4995 7L10.4995 6C8.01424 5.99999 5.99951 8.01471 5.99951 10.5H6.99951ZM5.99951 13.6342C5.99951 15.0408 7.76145 15.6738 8.65659 14.5887L7.88521 13.9523C7.58683 14.314 6.99951 14.103 6.99951 13.6342H5.99951ZM20.7268 9.33365C20.7268 10.6225 19.6819 11.6673 18.3931 11.6673V12.6673C20.2342 12.6673 21.7268 11.1748 21.7268 9.33365H20.7268ZM23.9995 20.2906V23.0684H24.9995V20.2906H23.9995ZM12.6059 16.7907L20.4995 16.7906L20.4995 15.7906L12.6058 15.7907L12.6059 16.7907ZM20.6376 22.3097L22.4335 24.1237L23.1441 23.4202L21.3483 21.6062L20.6376 22.3097ZM12.6059 22.4579L20.993 22.4579V21.4579L12.6059 21.4579V22.4579ZM10.2722 19.1243C10.2722 17.8355 11.317 16.7907 12.6059 16.7907L12.6058 15.7907C10.7647 15.7907 9.27222 17.2832 9.27222 19.1243H10.2722ZM24.9995 20.2906C24.9995 17.8054 22.9847 15.7906 20.4995 15.7906L20.4995 16.7906C22.4325 16.7906 23.9995 18.3576 23.9995 20.2906H24.9995ZM23.9995 23.0684C23.9995 23.5151 23.4584 23.7376 23.1441 23.4202L22.4335 24.1237C23.3762 25.076 24.9995 24.4085 24.9995 23.0684H23.9995ZM9.27222 19.1243C9.27222 20.9654 10.7647 22.4579 12.6059 22.4579V21.4579C11.317 21.4579 10.2722 20.4131 10.2722 19.1243H9.27222Z" fill="black"/>
</svg>

<svg width="32" height="32" fill="none" xmlns="http://www.w3.org/2000/svg"><path d="M6.5 10.5H6h.5Zm0 3.134H7h-.5ZM18.393 6.5V6v.5Zm-7.894 0V7v-.5Zm-.493 5.667v-.5H9.77l-.15.182.386.318Zm-1.735 2.104.386.318-.386-.319Zm10.122-2.104v.5-.5Zm2.834-2.833h-.5.5ZM24.5 20.29h.5-.5Zm0 2.777H24h.5Zm-11.894-6.777v.5-.5Zm7.894 0v-.5.5Zm.493 5.667.355-.352-.146-.148h-.209v.5Zm1.796 1.814.355-.352-.355.352Zm-10.183-1.814v.5-.5ZM6 10.5v3.134h1V10.5H6ZM18.393 6H10.5v1h7.894V6ZM9.62 11.85l-1.735 2.102.772.637 1.735-2.104-.772-.636Zm8.773-.183h-8.387v1h8.387v-1Zm3.334-2.333A3.334 3.334 0 0 0 18.393 6v1a2.334 2.334 0 0 1 2.334 2.334h1ZM7 10.5A3.5 3.5 0 0 1 10.5 7V6A4.5 4.5 0 0 0 6 10.5h1Zm-1 3.134c0 1.407 1.761 2.04 2.657.955l-.772-.637A.5.5 0 0 1 7 13.634H6Zm14.727-4.3a2.334 2.334 0 0 1-2.334 2.333v1a3.334 3.334 0 0 0 3.334-3.333h-1ZM24 20.29v2.777h1v-2.777h-1Zm-11.394-3.5H20.5v-1h-7.894v1Zm8.032 5.519 1.795 1.814.711-.704-1.796-1.814-.71.704Zm-8.032.148h8.387v-1h-8.387v1Zm-2.334-3.334a2.334 2.334 0 0 1 2.334-2.333v-1a3.334 3.334 0 0 0-3.334 3.333h1ZM25 20.291a4.5 4.5 0 0 0-4.5-4.5v1a3.5 3.5 0 0 1 3.5 3.5h1Zm-1 2.777a.5.5 0 0 1-.856.352l-.71.704c.942.952 2.566.285 2.566-1.056h-1ZM9.272 19.124a3.334 3.334 0 0 0 3.334 3.334v-1a2.334 2.334 0 0 1-2.334-2.334h-1Z" fill="#000"/></svg>
